X: 20538
T: John McGee's
R: slide
M: 12/8
K: Dmajor
|:D2 F A2 d Bcd A3|Bcd A2 F E3 E3|
D2 F A2 d Bcd A3|Bcd e2 c d3 d3:|
|:f2 e d2 A Bcd A3|f2 e dcd e3 e3|
f2 e d2 A Bcd A3|Bcd e2 c d3 d3:|

